X:1
T:Sweet Adeline....ttbb
T: Sweet Rosalie; The Flower Song; You're the Flower of My Heart 
T:               Lyrics: Richard H. Gerard                                                              Choral Arrangement by Donald A. Mills Musid: Harry W. Armstrong Profits from the sale of this arrangement to benefit barbershop in Ft. Lauderdale, Florida 
T:Barbershop for You, and You, and YOU!
T:Arrangement © by Donald A. Mills. 2020, profits from sheet music sale shared with South Florida Barbershop in Sunshine District  
T:Arrangement © by Donald A. Mills. 2020, profits from sheet music sale shared with South Florida Barbershop in Sunshine District  
T:Arrangement © by Donald A. Mills. 2020, profits from sheet music sale shared with South Florida Barbershop in Sunshine District  
T:Arrangement © by Donald A. Mills. 2020, profits from sheet music sale shared with South Florida Barbershop in Sunshine District  
T:Arrangement © by Donald A. Mills. 2020, profits from sheet music sale shared with South Florida Barbershop in Sunshine District  
T:Arrangement © by Donald A. Mills. 2020, profits from sheet music sale shared with South Florida Barbershop in Sunshine District  
T:Arrangement © by Donald A. Mills. 2020, profits from sheet music sale shared with South Florida Barbershop in Sunshine District  
C:Harry W. Armstrong
Z:Richard H. Gerard
Z:Arrangement © by Donald A. Mills. 2020, profits from sheet music sale shared with South Florida Barbershop in Sunshine District
%%score [ ( 1 2 ) ( 3 4 ) ]
L:1/8
Q:1/4=55
M:4/4
K:Bb
V:1 treble-8 nm="Tenor\nLead" snm="Tenor\nLead"
V:2 treble-8 
V:3 bass nm="Baritone\nBass" snm="Baritone\nBass"
V:4 bass 
V:1
"^Duration: 5' 01\" bpm""^1.4.2020" z6"^INTRO" DE | F F2 _F/=F/ G/B/B/- B2 c/ | %2
w: ||
w: ||
w: * [thee]||
 d2"_NB""^NB" B3 ded | d2 c3 _c=cd | (d F2) B A2 GA | Bd^cd e/g/g- g>_g | f2 d3 f g>f | %7
w: |||||
w: * * of days gone|by love to me so|dear _ so dear. There's *||* in', brings back the|
w: |||||
 _f2 (f2 e)de!courtesy!=f | d2 e2 d2 Bc | dfff gg _g>g | f2 d4 f2 | fedf d_f f>f | e6 fe | %13
w: ||||||
w: time, love _ when you were|near, so near. It is|then I won- der where you are my|dar- lin', and|if your heart to me is still the|same. For the|
w: ||||||
 dd_d=d eg g>_g | f2 d3 fgf | g2 g3 d e>f | (d4 d)f g>a | b4- bb d>f | g4- gf g>e | e2 (ed) c4 | %20
w: |||||||
w: sigh- in' winds and night- in- gale a-|sing- in' are breath- in'|on- ly your own sweet|name _ Sweet A- de-|line _ my A- de-|line. _ at night dear|heart, dear _ heart|
w: |||||||
 d d2 f gf =e>_e | d2 d_d =ddcd | e2 ed e2 e>e | dfgf =ed_ec | d6[Q:1/4=50]"^slower bpm" e>e | %25
w: |||||
w: for you I pine. In all my|dreams, all my dreams your fair face|beams, fair face beams You're the|flow- er of my heart Sweet A- de-|line. You're the|
w: |||||
 dfgf =e>[Q:1/4=45]"^even slower bpm"e f_e | d6 f>e | dd_d=d e/e/ e2 e | f2 d3 deg | g2 f3 fff | %30
w: |||||
w: flow- er of my heart Sweet A- de-|line. I can|see your smil- in' face as when we|wan- der, down by the|sea- side just you and,|
w: |||||
 d2 d2 c2 fe | Bd _d>=d e/d/e- e>e | !courtesy!=f2 d3 f g>f | f2 e2- e__e_ef | d3 e d2 Bc | %35
w: |||||
w: you and I. And it|seems so real at times 'til I _ a-|wa- ken, to find all|van- ished _ my dreams gone|by, gone by. If we|
w: ||||by, _ _ _ _|
 dg/g/ gg g/g/(g _g>)=e | !courtesy!=f2 (d4 f)f | gedc d_f f>f | e2 (eg) f2 f>e | dd_d=d eg g>_g | %40
w: |||||
w: must meet some time in la- ter years _ my|dar- lin', _ _|trust that I will find your love still|mine, all _ mine. Though my|heart is sad and clouds a- bove are|
w: _ _ _ _ _ _ _ _ _ _|||||
 !courtesy!=f2 (e d2) fgf | g2 (g2 f)def | %42
w: ||
w: drif- tin' _ the sun a-|gain, love, _ for me will|
w: ||
 d2 (eg)"^tenuto"[Q:1/4=35] !tenuto!bd[Q:1/4=15] !fermata!f>[Q:1/4=40]d | %43
w: |
w: shine will _ shine. * * *|
w: |
[Q:1/4=40]"^slow to bpm" c/4d/4c/4B/4 z de dB[Q:1/4=35] !fermata!d>[Q:1/4=40]B | e2 ef e2 z2 | %45
w: ||
w: * * * * A- de- line. * * *|My A- de- line.|
w: ||
 e2 ed e2 z2 | B2 ff gd[Q:1/4=20] !fermata!f>[Q:1/4=40]d | d2 fc d2 z2 | e2 cd e2 e>e | %49
w: ||||
w: At night dear heart,|for you I pine. In all my|dreams, all my dreams.|Your fair face beams. * *|
w: ||||
[Q:1/4=50]"^bpm" dfg_g[Q:1/4=40]"^bpm" f_f=fe | d6"^TAG" z e/e/ |[Q:1/4=55]"^bpm" dfgf (e4 | %52
w: |||
w: |line. You're the|flow- er of my heart|
w: |||
 f)fga b4- | b8- | b8- | b8[Q:1/4=15] | %56
w: ||||
w: _ Sweet A- de- line.|_|||
w: ||||
"^ritard"[Q:1/4=40]!f! z b3 b2[Q:1/4=30] !fermata!b2[Q:1/4=20] |!ff![Q:1/4=40] b8- | %58
w: ||
w: Sweet * *||
w: ||
 !fermata!b2[Q:1/4=300] z2 z4[Q:1/4=2] |] x8 | x8 | x8 | %62
w: ||||
w: ||||
w: ||||
V:2
 x6 DE | F F2 _F/=F/ G/B/B/- B2 c/ | d2 ((B3 d))ed | d2 c3 _c=cd | (d F2) B A2 DE | %5
w: |||||
w: In the|eve- nin' when I sit a- lone _ a-|dream- in', * * *||* * * * * a|
w: |||||
 DF_F=F G/B/B- B>_d | !courtesy!=d2 B3 d e>d | d2 c3 _c!courtesy!=cd | B6 BA | GBdd ee B>c | %10
w: |||||
w: pic- ture that in fan- cy oft' _ ap-|pear- * * * *||||
w: ||time, love, when you were|near, _ _|_ _ _ _ _ _ _ _|
 d2 B4- (Bd) | dcBA GA B>G | c2 B2 A2 DE | FF_F=F GB B>c | d2 B3 ded | d2 c3 _c =c>d | B4- Bd c>F | %17
w: |||||||
w: |||||||
w: dar- ling _ and
||same, the same. * *||||* * * [A- deh-|
 B4- BB A>_G | G4- GB B>G | A4- AAG_G | F4- Fd c>F | B4- BB A>_G | G6 A>G | FBed cGAF | B6 A>G | %25
w: ||||||||
w: ||||||||
w: line] * * * *||heart, _ for you I|pine. _ In all my|dreams _ your fair face|beams. _ _|_ _ _ _ _ _ _ _||
 FBed c>G AF | B6 c>c | BF_F=F G/B/ B2 (B/c/) | !courtesy!=d2 B3 ded | d2 c3 _c=cd | %30
w: |||||
w: |||||
w: |||||
 (B F2) B A2 DE | FF _F>=F G/B/B- B>c | d2 B3 d e>d | d2 c2- c_c=cd | B6 Bc | dd/d/ dd e/e/e- e>c | %36
w: ||||||
w: ||||||
w: you _ and I. * *||||||
 d2 B4- Bd | dcBA GA B>G | c2 cd e2 D>E | FF_F=F GB B>c | d2 B3 ded | d2 c3 _c=cd | %42
w: ||||||
w: * * * I||||||
w: ||||||
 B4- !tenuto!Bd f>d | c/4d/4c/4B/4 B4 B d>B | (A/4B/4)A/4G/4 G4 B B>G | A4- AAG_G | F2 DD CF f>d | %47
w: |||||
w: |||||
w: shine _ Sweet A- de-|line _ _ _ _ My A- de-|line _ _ _ _ At night dear|heart, _ for you I|for you I pine. In all my|
 (c/4d/4)c/4B/4 B4 B d>B | (A/4B/4)A/4G/4G G4 A>G | FBed cGAF | B6 A>G | FBed c4- | cdcF B4 | %53
w: ||||||
w: |* * * * * * You're the|flow- er of my heart Sweet A- de-||||
w: dreams, _ _ _ _ your fair face|beams _ _ _ _ _ _ _|_ _ _ _ _ _ _ _|* You're *|||
 e2 e=e f4 | e4 e _d3 | !courtesy!=d6 x2 | f4 g2 g2 | f8- | f2 z2 z4 |] x8 | x8 | x8 | %62
w: |||||||||
w: |||* A- de-|line.|_||||
w: Sweet A- de- line,|My A- de-|line,|Sweet A- de-|line.|_||||
V:3
 z8 | z8 | z4 z F,G,F, | _F,2 (F,2 E,)D,E,!courtesy!=F, | F,2 D,2 E,2 DC | B,D_D=D B,/E/E- E>B, | %6
w: ||||||
w: ||Of days gone|by love _ to me so|dear, so dear. There's a|pic- ture that in fan- cy oft' _ ap-|
w: ||||||
 B,2 B,3 B, E>D | B,3 C2 A,=A,C | F,2 G,2 F,2 DE | B,DDB, B,B, C>B, | (D2 B,2) B,2 D2 | %11
w: |||||
w: pear- in', brings back the|time, love, when you were|near, _ _ It is|then I won- der where you are my|dar- * lin' and|
w: ||near, so near. * *|||
 B,A,B,D B,C D>D | C C3 C2 CC | B,B,_DB, EE E>B, | (B,2 D3) DEB, | B,2 B,C (A,_A,) =A,2 | %16
w: |||||
w: if your heart to me is still the|same, the same. for the|sigh- in' winds and night- in- gale a-|sing- * are breath- in'|on- ly your own, _ sweet|
w: |||||
 B,2 C2 B,DEC | B,DE_D (=D4 | B,)_C=CD EDED | C2 (CD) (E4 | B,)B,B,B, A,A, B,>C | B,F,CF, F,B,CB, | %22
w: ||||||
w: name, sweet name. Sweet A- de-|line, my A- de- line|_ my A- de- line, At night dear|heart, dear _ heart,|_ for you I pine. In all my|dreams in all my dreams, your fair face|
w: ||||||
 B,2 CB, B,2 z2 | z4 B,B,CA, | B,6 z2 | z8 | z8 | z8 | z4 z F,G,F, | B,2 (A,2 A,)_A,=A,A, | %30
w: ||||||||
w: beams, fair face beams.|Heart Sweet A- de-|line.||||Down by the|sea- side _ just you and,|
w: ||||||||
 D2 D2 G,2 DC | B,B, A,>B, E/E/E- E>A, | B,2 B,3 B, C>B, | (A,2 G,)_A, =A,_A,=A,A, | %34
w: ||||
w: you and I. And it|seems so real at times 'til I _ a-|wa- ken to find all|van _ _ ished my dreams gone|
w: ||||
 F,2 G,2 B,2 DE | B,B,/B,/ DB, B,/B,/(B, C>)A, | B,2 B,4- B,B, | B,A,B,C B,C D>D | %38
w: ||||
w: by, gone by. If we|must meet some time in la- ter years _ my|dar- lin', _ I|trust that I will find your love still|
w: ||||
 (A, E2) E C2 C>C | B,B,CB, EE E>D | B,2 B,3 DCD | B,2 (B,G, A,)_A,EC | %42
w: ||||
w: mine _ all mine. Though my|heart is sad and clouds a- bove are|drif- tin' the sun a-|gain, love _ _ for me will|
w: ||||
 B,2 (G,B,)"^tenuto" !tenuto!D z !fermata!z2 | z _A,G,E B, z z2 | (CB,)CD B,2 z2 | C C2 B, A,2 z2 | %46
w: ||||
w: shine, will _ shine.|Sweet A- de- line.|My _ A- de- line.|At night dear heart,|
w: ||||
 D(DB,)D C2 !fermata!z2 | (A,B,)DC D2 z2 | C2 ED B,2 z2 | z2 CB, A,DA,A, | B,6 z C/C/ | %51
w: |||||
w: for you _ I pine.|In _ all my dreams.|Your fair face beams.|of my heart Sweet A- de-|line. You're the|
w: |||||
 B,DED A,4- | A,DEC D4 | C2 C_D =D4 | C4 C _D3 | _B,6"_NB" !fermata!z2 | %56
w: |||||
w: flow- er of my heart,|_ Sweet A- de- line.|Sweet A- de- line,|My A- de-|line,|
w: |||||
!f!"^ritard" D4 _D2 !fermata!D2 |!ff! !courtesy!=D6 !~(!B,2 | !~)!!fermata!D2 z2 z4 |] x8 | x8 | %61
w: |||||
w: Sweet A- de-|line. _|_|||
w: |||||
 x8 | %62
w: |
w: |
w: |
V:4
 x8 | x8 | z4 z F,G,F, | _F,2 (F,2 E,)D,E,=F, | F,2 D,2 E,2 B,A, | F,B,A,B, E,/E,/E,- E,>B, | %6
w: ||||||
w: ||||||
w: ||||||
 B,2 F,3 B,CB, | (B,3 G,) !courtesy!=F,F,F,A, | B,6 F,F, | G,B,A,G, E,E, E,>=E, | %10
w: ||||
w: ||||
w: * * brings back the|time, _ love, when you were|||
 (B,2 F,2) F,2 B,2 | A,G,F,D, G,_F, B,>B, | A, G,3 F,2 A,A, | F,F,A,F, B,E, E,>=E, | %14
w: ||||
w: ||||
w: ||||
 (F,2 B,3) A,B,F, | G,2 G,G, F,2 A,2 | G,2 _G,2 F,B,B,F, | B,_A,G,_F, (=F,4 | E,2) _A,B, E,B,CB, | %19
w: |||||
w: |||||
w: ||* * * * [A- deh-|line] * * * *|my A- de- line, At night dear|
 F,2 F,2 F,2 G,2 | B,B,B,G, F,F, G,>F, | F,F,F,_D, =D,F,F,F, | E,2 B,G, E,2 z2 | z4 G,G,G,F, | %24
w: |||||
w: |||||
w: heart, dear heart, for|you, * * * * * * *||||
 F,6 z2 | x8 | x8 | x8 | z4 z F,G,F, | _F,2 (=F,2 E,)D,E,F, | F,2 F,2 E,2 A,A, | %31
w: |||||||
w: |||||||
w: |||||||
 B,B, A,>B, B,/G,/G,- G,>_F, | z2 (F,D,) G, z3 | z8 | z2 G,2 F,2 F,E, | %35
w: ||||
w: ||||
w: |wa _ ken.|||
 G,G,/G,/ B,G, E,/E,/(E, B,>)=E, | !courtesy!=F,2 F,4- F,F, | G,A,F,F, G,C G,>B, | %38
w: |||
w: |||
w: |||
 (!courtesy!=F, C2) B, A,2 A,>A, | B,F,A,B, B,G, B,>_F, | !courtesy!=F,2 (G, F,2) F,G,A, | %41
w: |||
w: |||
w: |||
 G,2 (E,2 F,)F,G,=A, | F,2 E,2 !tenuto!B, z z2 | F,2 _F,G, =F, z z2 | (G,E,)CB, E,2 z2 | %45
w: ||||
w: ||||
w: ||Sweet * * *||
 z4 F,2 C2 | B,B, F,2 A,2 z2 | F,2 B,F, _A,2 z2 | G,2 CG, E,2 z2 | z2 C_G, F,B,F,F, | %50
w: |||||
w: |||||
w: Heart for|for you I pine.||||
 F,6 z A,/A,/ | F,B,B,F, (F,4 | F,)A,CF, B,4 | G,2 G,_G, F,4 | G,4 G, _G,3 | (F,6 z2 | %56
w: ||||||
w: ||||||
w: ||||||
 (B,) F,3) (F, (E,2) !fermata!G,) | B,6 !~(!B,2 | !~)!B,,2 z2 z4 |] x8 | x8 | x8 | %62
w: ||||||
w: ||||||
w: Sweet * A- de _|line. _|_||||

